X: 1
T: Killoran's
M: 4/4
L: 1/8
R: reel
K: Dmaj
D2DB ADFA|BFAF EDB,E|D2DB ADFA|1 Bdec dBAF:|2 Bdec d2dB|]
ABde fd~d2|gefd edBd|ABde fd~d2|gfed BddB|
ABde fd~d2|gefd edBc|d2dc dfaf|gfec dBAF|]
